!!!OTL: Mein guter Michel.
!!!OTL-incipit: MEIN GUTER MICHEL LIEBET MICH
!!!COM: Volksweise
!!!ARE: Europa, Mitteleuropa, Deutschland
!!!SCT: F0060
!!!TXL: @@DE
!!!YEM: Copyright 1995, estate of Helmut Schaffrath.
**kern	**text
*ICvox	*
*clefG2	*
*M2/4	*
*k[f#]	*
*G:	*
!LO:TX:a:t=P:only higher voice encoded:problem	!
!LO:TX:a:t=Munter.	!
{8d	1._Mein
=1	=1
8.g	gu-
16g	-ter
8g	Mi-
8g	-chel
=2	=2
8g	lie-
8b/	-bet
8g	mich,
8r	lie-
=3	=3
8g	-bet
8b/	mich
8g}	.
{8b/	mit
=4	=4
8a	deutſcher
8g	.
8f#	Red-
8e	-lich-
=5	=5
(>8dL	-keit,
8f#J	.
8a)}	.
{8g	mit
=6	=6
8f#	deutſcher
8dd	.
8dd	Red-
8cc#	-lich-
=7	=7
4dd	-keit,
8r}	.
{8d	ſo
=8	=8
8ccn/	wie
8cc/	er
8a	liebt,
8a	liebt
=9	=9
8b/	ſi-
8b/	-cherlich
8g}	.
{8g	kein
=10	=10
8a	Bur-
8a	-ſche
8f#	weit
8f#	und
=11	=11
(8g/L	breit,
8b	.
8ddJ)}	.
{8dd/	ſo
=12	=12
8cc/	wie
8cc/	er
8a	liebt,
8a	liebt
=13	=13
8b/	ſi-
8b/	-cherlich
8g}	.
{8g	kein
=14	=14
8a	Burſche
8a	.
8f#	weit
8f#	und
=15	=15
4g	breit.
8r;}	.
==	==
!!!AGN: Liebes - Lied, Hochzeit
!!!ONB: ESAC (Essen Associative Code) Database: FINK
!!!AMT: simple duple
!!!AIN: vox
!!!EED: Helmut Schaffrath
!!!EEV: 1.0
!!!RDF**kern: > = above
!!!GTL: Volkslieder
!!!source: Musikalischer Hausschatz der Deutschen. Eine Sammlung von über 1000 Liedern und Gesängen mit Singstimmen und Klavierbegleitung. Leipzig, Litterarisches Verlags-Haus.
!!!page: 35
!!!URL-scan: https://www.digitale-sammlungen.de/en/view/bsb11144622?page=42,43
!!!ENC: Anna Maria Matuszewska
!!!EEV: 2024/25/07
*-	*-
